public/themes/EC/images/family-d.svg

<?xml version="1.0" encoding="UTF-8"?>
<svg width="45px" height="45px" viewBox="0 0 45 45" version="1.1" xmlns="http://www.w3.org/2000/svg" xmlns:xlink="http://www.w3.org/1999/xlink">
    <!-- Generator: Sketch 61 (89581) - https://sketch.com -->
    <title>family</title>
    <desc>Created with Sketch.</desc>
    <g id="Page-1" stroke="none" stroke-width="1" fill="none" fill-rule="evenodd">
        <g id="family" fill="#000000" fill-rule="nonzero">
            <path d="M4.04581717,4.01779934 C4.04581717,1.79883004 5.84178593,0 8.05722568,0 C10.2726654,0 12.0686342,1.79883004 12.0686342,4.01779934 C12.0686342,6.23676864 10.2726654,8.03559868 8.05722568,8.03559868 C5.84178593,8.03559868 4.04581717,6.23676864 4.04581717,4.01779934 L4.04581717,4.01779934 Z M14.4754793,10.4462783 C14.4754793,10.4462783 10.544299,9.64271842 8.05722568,9.64271842 C5.5701524,9.64271842 1.63897206,10.4462783 1.63897206,10.4462783 C0.0344086478,10.8480582 -0.0859336077,11.8123301 0.0344086478,12.8569579 L1.39828754,25.1112459 C1.44577043,25.5095306 1.63013943,25.878856 1.91977065,26.1558737 L2.64182418,26.8790776 C2.93989774,27.1663525 3.12497207,27.55135 3.16330729,27.9638834 L4.60741436,43.3922329 C4.69172256,44.3209639 5.48180491,45.0243782 6.41254819,44.9993526 L9.70190318,44.9993526 C10.6326465,45.0243782 11.4227288,44.3209639 11.507037,43.3922329 L12.8709159,27.9638834 C12.9092511,27.55135 13.0943255,27.1663525 13.392399,26.8790776 L14.1545666,26.1558737 C14.42947,25.8729756 14.5993514,25.5043127 14.6359357,25.1112459 L16.0800427,12.8569579 C16.200385,11.8123301 16.1201568,10.8480582 14.5155934,10.4462783 L14.4754793,10.4462783 Z M22.4982964,19.6872168 C24.2706482,19.6872168 25.7074232,18.2481527 25.7074232,16.4729773 C25.7074232,14.6978019 24.2706482,13.2587378 22.4982964,13.2587378 C20.7259446,13.2587378 19.2891695,14.6978019 19.2891695,16.4729773 C19.2891695,18.2481527 20.7259446,19.6872168 22.4982964,19.6872168 Z M26.9910739,20.6514886 C25.5100646,20.3490812 24.0080564,20.1610311 22.4982964,20.0889967 C20.9885363,20.1610311 19.4865281,20.3490812 18.0055188,20.6514886 C16.8823244,20.9327346 16.8020963,21.5755825 16.9224385,22.2987863 L17.8450625,30.736165 C17.8801704,31.0314784 18.0230418,31.3033666 18.2462033,31.4995468 L18.7275723,31.9816827 C18.9596779,32.1877511 19.1033841,32.4756213 19.1287132,32.7852426 L20.0914512,43.9145468 C20.1725562,44.5390203 20.7062765,45.0046141 21.3349879,44.9993968 L23.7017189,44.9993968 C24.344128,45.002372 24.8830933,44.5147891 24.9452555,43.8743688 L25.9481077,32.7450646 C25.9832156,32.4497511 26.126087,32.177863 26.3492485,31.9816827 L26.8306176,31.4995468 C27.0305062,31.3073036 27.1580276,31.0518546 27.1916443,30.7763429 L28.1543824,22.3389643 C28.2346105,21.5755825 28.1543824,20.9327346 27.031188,20.6514886 L26.9910739,20.6514886 Z M36.939367,8.03559868 C39.1548068,8.03559868 40.9507755,6.23676864 40.9507755,4.01779934 C40.9507755,1.79883004 39.1548068,0 36.939367,0 C34.7239273,0 32.9279585,1.79883004 32.9279585,4.01779934 C32.9279585,6.23676864 34.7239273,8.03559868 36.939367,8.03559868 L36.939367,8.03559868 Z M43.3576206,10.4462783 C43.3576206,10.4462783 39.4264403,9.64271842 36.939367,9.64271842 C34.4522937,9.64271842 30.5211134,10.4462783 30.5211134,10.4462783 C28.91655,10.8480582 28.7962077,11.8123301 28.91655,12.8569579 L30.2804289,25.1112459 C30.3279118,25.5095306 30.5122808,25.878856 30.801912,26.1558737 L31.5239655,26.8790776 C31.8220391,27.1663525 32.0071134,27.55135 32.0454486,27.9638834 L33.4895557,43.3922329 C33.5738639,44.3209639 34.3639462,45.0243782 35.2946895,44.9993526 L38.5840445,44.9993526 C39.4994658,45.0031485 40.2658513,44.3053245 40.3490643,43.3922329 L41.7931713,27.9638834 C41.8315065,27.55135 42.0165809,27.1663525 42.3146544,26.8790776 L43.036708,26.1558737 C43.3263392,25.878856 43.5107082,25.5095306 43.5581911,25.1112459 L44.9621841,12.8569579 C45.0825263,11.8123301 45.0022981,10.8480582 43.3977347,10.4462783 L43.3576206,10.4462783 Z" id="Shape"></path>
        </g>
    </g>
</svg>

<svg width="45" height="45" viewBox="0 0 45 45" xmlns="http://www.w3.org/2000/svg"><title>family</title><path d="M4.046 4.018A4.015 4.015 0 0 1 8.057 0a4.015 4.015 0 0 1 4.012 4.018 4.015 4.015 0 0 1-4.012 4.018 4.015 4.015 0 0 1-4.011-4.018zm10.43 6.428s-3.932-.803-6.419-.803c-2.487 0-6.418.803-6.418.803-1.605.402-1.725 1.366-1.605 2.411l1.364 12.254c.048.399.232.768.522 1.045l.722.723c.298.287.483.672.521 1.085l1.444 15.428A1.766 1.766 0 0 0 6.413 45h3.289c.93.025 1.72-.678 1.805-1.607l1.364-15.428c.038-.413.223-.798.521-1.085l.763-.723a1.73 1.73 0 0 0 .48-1.045l1.445-12.254c.12-1.045.04-2.009-1.564-2.41h-.04zm8.022 9.241a3.212 3.212 0 0 0 3.21-3.214 3.212 3.212 0 0 0-3.21-3.214 3.212 3.212 0 0 0-3.209 3.214 3.212 3.212 0 0 0 3.21 3.214zm4.493.964a29.48 29.48 0 0 0-4.493-.562 29.48 29.48 0 0 0-4.492.562c-1.124.282-1.204.925-1.084 1.648l.923 8.437c.035.295.178.567.401.764l.482.482c.232.206.375.494.4.803l.963 11.13c.082.624.615 1.09 1.244 1.084h2.367a1.244 1.244 0 0 0 1.243-1.125l1.003-11.129c.035-.295.178-.567.401-.763l.482-.482c.2-.193.327-.448.36-.724l.963-8.437c.08-.763 0-1.406-1.123-1.688h-.04zM36.94 8.036a4.015 4.015 0 0 0 4.012-4.018A4.015 4.015 0 0 0 36.939 0a4.015 4.015 0 0 0-4.011 4.018 4.015 4.015 0 0 0 4.011 4.018zm6.419 2.41s-3.932-.803-6.419-.803c-2.487 0-6.418.803-6.418.803-1.604.402-1.725 1.366-1.604 2.411l1.363 12.254c.048.399.232.768.522 1.045l.722.723c.298.287.483.672.521 1.085l1.445 15.428A1.766 1.766 0 0 0 35.295 45h3.289a1.766 1.766 0 0 0 1.765-1.607l1.444-15.428c.039-.413.224-.798.522-1.085l.722-.723c.29-.277.474-.646.521-1.045l1.404-12.254c.12-1.045.04-2.009-1.564-2.41h-.04z"/></svg>
